X:1
T:Title
%%score { ( 1 3 ) | ( 2 4 ) }
L:1/8
M:6/8
K:C
V:1 treble nm="Grand Piano"
V:3 treble 
V:2 bass 
V:4 bass 
V:1
 z3 z2[Q:1/4=90] [EG] | [EG]2 [DF] [B,D][CE][DF] | [_EA]2 [EA] [=EG]2 [_EA] | [EG]2 E DE[G,B,F] | %4
 C3- [CE]2 [G,EG] | [Ec]2 [EB] .[A,FA]2 [Fc] | [FB]2 [B,FA] [CEG]2 [Ec] | [Ge]2 [Ec] [DB][Ec][Fd] | %8
 [Ec]3- [Ec]2 [Ec] | [DB]2 [FA] [DF][^CE][DF] | z3 z2 [Ge] | [Gd]2 [Gd] .[^Fd]2 [CFA] | %12
 [C^FA]3 [B,G]2 [B,=FG] | z3 .A3 | [DB]2 A G2 E | [CG]2[K:bass] [E,C] [F,D]E[F,B,D] | %16
[M:13/8] [E,C]-[E,C]- [E,C]3 z z z z z z z2 |[M:3/4] [F,A,CF]6 | [G,CE]6 |] %19
V:2
 z3 z2 [C,G,] | [G,,G,]2 [G,,G,] [G,,G,]2 [G,,G,] | [C,^F,]2 [C,F,] [C,G,]2 [C,F,] | %3
 [C,G,]2 [E,G,C] [G,B,]2 G,, | z3 G,2 C, | [C,G,]2 [C,G,] z[K:treble] B[K:bass][C,A,] | %6
 [D,G,]2 G,, C,2 [C,G,] | [G,,G,]2 [G,,G,] [G,,G,]2 [G,,G,] | [C,G,]3- [C,G,]2 [C,G,] | %9
 [G,,G,]2 [G,,G,] [G,,G,]2 [G,,G,] | [C,^F,]2 [C,F,] [C,G,]2 .[C,G,] | %11
 [D,B,]2 [D,B,] z[K:treble] c[K:bass]D, | D,3 G,2 G, | C,2 [C,G,] [C,^F,]2 [C,F,] | %14
 [C,F,]2 [C,F,B,] [C,E,C]2 [C,G,C] | [G,,E,]2 G,, z G,G,, |[M:13/8] C,-C,- C,3 z z z z z z z2 | %17
[M:3/4] F,,6 | C,6 |] %19
V:3
 x6 | x6 | x6 | x6 | [A,F]3 z3 | x6 | x6 | x6 | x6 | x6 | [_EA]2 [EA] [=EG]2 z/ A,/ | x6 | x6 | %13
 [CEc]2 [EB] _E-[EB][Ec] | x6 | z3[K:bass] .B,3 |[M:13/8] x13 |[M:3/4] x6 | x6 |] %19
V:4
 x6 | x6 | x6 | x6 | C,6 | z3 .C,3[K:treble][K:bass] | x6 | x6 | x6 | x6 | x6 | %11
 z3 .[D,A,]3[K:treble][K:bass] | x6 | x6 | x6 | z3 .G,,3 |[M:13/8] x13 |[M:3/4] x6 | x6 |] %19

